src/_assets/_icons/_figma/icon-stonks-filled.svg

<svg fill="none" height="24" width="24" xmlns="http://www.w3.org/2000/svg"><path d="m19.84 15.279-.002.002a8.754 8.754 0 0 1 -1.838 2.713 8.598 8.598 0 0 1 -2.71 1.84 8.215 8.215 0 0 1 -3.29.666 8.215 8.215 0 0 1 -3.289-.668 8.62 8.62 0 0 1 -2.709-1.84zm0 0a8.365 8.365 0 0 0 0-6.558m0 6.558v-6.559m0 0-.002-.003m.001.003-.001-.003m0 0a8.737 8.737 0 0 0 -4.559-4.552m4.559 4.552-4.559-4.552m0 0-.003-.001m.003.001-.003-.001m0 0a8.438 8.438 0 0 0 -6.565 0h-.002m6.567 0h-6.567m0 0a8.525 8.525 0 0 0 -2.712 1.84zm-4.547 4.553a8.777 8.777 0 0 1 1.835-2.712zm0 0v.002m0-.002v.002m0 0a8.365 8.365 0 0 0 0 6.558m0-6.558v6.558m0 0v.002m0-.002v.002m0 0a8.753 8.753 0 0 0 1.839 2.712l-1.839-2.711z" fill="#8e8e8e" stroke="#fafafa"/><path d="m7.588 14.973v-6.383a.495.495 0 0 1 .148-.357.475.475 0 0 1 .347-.149.506.506 0 0 1 .501.506v3.023l.963-.99a.91.91 0 0 1 .653-.3.883.883 0 0 1 .654.3l1.358 1.42c.027.033.053.03.082-.01l1.338-1.348-.547-.534a.31.31 0 0 1 -.089-.363.455.455 0 0 1 .317-.272l2.34-.61a.365.365 0 0 1 .372.09.337.337 0 0 1 .094.357l-.61 2.35a.454.454 0 0 1 -.274.326.306.306 0 0 1 -.361-.09l-.536-.553-1.421 1.467a.908.908 0 0 1 -.664.307.933.933 0 0 1 -.664-.307l-1.338-1.388c-.026-.04-.057-.04-.09 0l-1.565 1.585v1.557c0 .047.02.07.06.07h7.238a.506.506 0 0 1 .495.495.487.487 0 0 1 -.148.357.476.476 0 0 1 -.347.148h-7.624a.67.67 0 0 1 -.496-.188.676.676 0 0 1 -.186-.516z" fill="#212121"/></svg>

<?xml version="1.0" encoding="utf-8"?>
<!-- Generator: Adobe Illustrator 27.6.1, SVG Export Plug-In . SVG Version: 6.00 Build 0)  -->
<svg version="1.1" id="Layer_1" xmlns="http://www.w3.org/2000/svg" xmlns:xlink="http://www.w3.org/1999/xlink" x="0px" y="0px"
	 viewBox="0 0 24 24" style="enable-background:new 0 0 24 24;" xml:space="preserve">
<style type="text/css">
	.st0{fill:#8E8E8E;stroke:#FAFAFA;}
	.st1{fill:#212121;}
</style>
<path class="st0" d="M19.8,15.3L19.8,15.3c-0.4,1-1.1,1.9-1.8,2.7c-0.8,0.8-1.7,1.4-2.7,1.8c-1,0.4-2.2,0.7-3.3,0.7
	c-1.1,0-2.3-0.2-3.3-0.7c-1-0.4-1.9-1.1-2.7-1.8L19.8,15.3z M19.8,15.3c0.9-2.1,0.9-4.5,0-6.6 M19.8,15.3V8.7 M19.8,8.7L19.8,8.7
	 M19.8,8.7L19.8,8.7 M19.8,8.7c-0.9-2-2.5-3.7-4.6-4.6 M19.8,8.7l-4.6-4.6 M15.3,4.2L15.3,4.2 M15.3,4.2L15.3,4.2 M15.3,4.2
	c-2.1-0.9-4.5-0.9-6.6,0h0 M15.3,4.2H8.7 M8.7,4.2C7.7,4.6,6.8,5.2,6,6L8.7,4.2z M4.2,8.7C4.6,7.7,5.2,6.8,6,6L4.2,8.7z M4.2,8.7
	L4.2,8.7 M4.2,8.7L4.2,8.7 M4.2,8.7c-0.9,2.1-0.9,4.5,0,6.6 M4.2,8.7v6.6 M4.2,15.3L4.2,15.3 M4.2,15.3L4.2,15.3 M4.2,15.3
	c0.4,1,1.1,1.9,1.8,2.7L4.2,15.3L4.2,15.3z"/>
<path class="st1" d="M7.6,15V8.6c0-0.1,0.1-0.3,0.1-0.4C7.8,8.1,8,8.1,8.1,8.1c0.3,0,0.5,0.2,0.5,0.5v3l1-1c0.2-0.2,0.4-0.3,0.7-0.3
	c0.3,0,0.5,0.1,0.7,0.3l1.4,1.4c0,0,0.1,0,0.1,0l1.3-1.3l-0.5-0.5C13,10.1,12.9,9.9,13,9.8c0.1-0.1,0.2-0.2,0.3-0.3l2.3-0.6
	c0.1,0,0.3,0,0.4,0.1c0.1,0.1,0.1,0.2,0.1,0.4l-0.6,2.3c0,0.1-0.1,0.3-0.3,0.3c-0.1,0.1-0.3,0-0.4-0.1l-0.5-0.6l-1.4,1.5
	c-0.2,0.2-0.4,0.3-0.7,0.3c-0.3,0-0.5-0.1-0.7-0.3l-1.3-1.4c0,0-0.1,0-0.1,0l-1.6,1.6v1.6c0,0,0,0.1,0.1,0.1h7.2
	c0.3,0,0.5,0.2,0.5,0.5c0,0.1-0.1,0.3-0.1,0.4c-0.1,0.1-0.2,0.1-0.3,0.1H8.3c-0.2,0-0.4-0.1-0.5-0.2C7.6,15.4,7.6,15.2,7.6,15z"/>
</svg>
